X: 14031
T: GEORGE WILSON'S
C: Bob McQuillen May'09
B: Bob's Note Book 14 #31
%R: reel
%D:2009
Z: 2020 John Chambers <jc:trillian.mit.edu>
M: C
L: 1/8
K: D
dB \
| A2FA GBAG | FAde f2dB | Adfd edBd | fafd efdB |
| A2FA GBAG | FAde fdAG | FAdf gecd | e2d2 d2  :|
|: fg \
| a2fd BAdB | Adfa f2ef | g2ge cAdf | edAF E2de |
| fafd BAdB | Adfa fdAF | GBed cAce | d2D2 D2  :|
%%begintext align
%% I've said, "it's always"
%% several times in these tune notes, but it really is
%% always a pleasure when I get to jam with the wonderful
%% fiddler George Wilson at the Dance Flurry. I'm not
%% much of a box player, but we get along OK and
%% have a good time, and that's what it's all about.
%% Thanks ever so much, George!
%%endtext

%%sep 1 1 500

%%sep 1 1 500

